!! Isochronous pitch passage.
!! Solo-line.
!! From J.S. Bach, Flute Partita, 1st movement, bar 1ff.
!! flute
!! 4/4 meter
**kern	**metpos
*M4/4	*M4/4
*tb16	*tb16
=1	=1
16r	1
16ee	5
16aa	4
16gg#	5
16aa	3
16ccc	5
16aa	4
16ee	5
16a	2
16e	5
16aa	4
16gg	5
16aa	3
16ccc	5
16aa	4
16ee	5
=2	=2
16a	1
16c	5
16ee	4
16ff	5
16g#	3
16ff	5
16ee	4
16dd	5
16cc	2
16ee	5
16gg#	4
16aa	5
16e	3
16dd	5
16cc	4
16b	5
=3	=3
16a	1
16c	5
16ee	4
16ff	5
16g#	3
16ff	5
16ee	4
16dd	5
16cc	2
16ee	5
16gg#	4
16aa	5
16e	3
16dd	5
16cc	4
16b	5
=4	=4
16a	1
16cc	5
16g#	4
16a	5
16f	3
16dd	5
16g	4
16a	5
16e	2
16cc	5
16g	4
16a	5
16d	3
16cc	5
16b	4
16a	5
=5	=5
16g#	1
16e	5
16g#	4
16b	5
16ee	3
16gg#	5
16bb	4
16ddd	5
16ff	2
16ddd	5
16bb	4
16gg#	5
16ee	3
16dd	5
16cc	4
16b	5
=6	=6
16cc	1
16a	5
16cc	4
16ee	5
16aa	3
16ccc	5
16eee	4
16ff	5
16ggn	2
16bb-	5
16gg	4
16ee	5
16cc	3
16b-	5
16a	4
16g	5
=7	=7
16a	1
16f	5
16a	4
16cc	5
16dd	3
16ff	5
16aa	4
16cc	5
16bn	2
16g	5
16b	4
16dd	5
16ee	3
16gg	5
16bb	4
16dd	5
=8	=8
16cc	1
16a	5
16cc	4
16ee	5
16ff	3
16aa	5
16ccc	4
16ee	5
16dd	2
16b	5
16dd	4
16ff#	5
16gg	3
16bb	5
16ddd	4
16ffn	5
=9	=9
16ee	1
16gg	5
16ccc	4
16bb	5
16ccc	3
16eee	5
16ccc	4
16gg	5
16cc	2
16gg	5
16ccc	4
16bb	5
16ccc	3
16eee	5
16ccc	4
16gg	5
=10	=10
16cc	1
16gg	5
16bb-	4
16aa	5
16bb-	3
16eee	5
16bb-	4
16gg	5
16cc	2
16gg	5
16bb-	4
16aa	5
16bb-	3
16eee	5
16bb-	4
16gg	5
=11	=11
16cc#	1
16gg	5
16bb-	4
16aa	5
16bb-	3
16eee	5
16bb-	4
16gg	5
16cc#	2
16gg	5
16ee	4
16cc#	5
16a	3
16g	5
16f	4
16e	5
=12	=12
16d	1
16gg	5
16ff	4
16ee	5
16ff	3
16aa	5
16ff	4
16dd	5
16b	2
16g#	5
16b	4
16dd	5
16ee	3
16dd	5
16cc	4
16b	5
=13	=13
16cc	1
16ee	5
16aa	4
16gg#	5
16aa	3
16ccc	5
16aa	4
16ff#	5
16dd#	2
16b	5
16dd#	4
16ff#	5
16bb	3
16aa	5
16ggn	4
16ff#	5
=14	=14
16gg	1
16ff#	5
16ee	4
16gg	5
16a	3
16ee	5
16gg	4
16ccc	5
16ff#	2
16ee	5
16ddn	4
16ff#	5
16g	3
16dd	5
16ff	4
16bb	5
=15	=15
16ee	1
16dd	5
16cc	4
16ee	5
16f#	3
16ee	5
16ff#	4
16aa	5
16dd#	2
16b	5
16cc	4
16a	5
16d#	3
16cc	5
16b	4
16a	5
=16	=16
16g	1
16ee	5
16ffn	4
16ddn	5
16g#	3
16ff	5
16ee	4
16dd	5
16a	2
16ff#	5
16ggn	4
16ee	5
16a#	3
16gg	5
16ff#	4
16ee	5
=17	=17
16dd#	1
16bb	5
16gg#	4
16ddn	5
16cc#	3
16aa	5
16ff#	4
16ccn	5
16b	2
16ggn	5
16ee	4
16b-	5
16a	3
16ff#	5
16dd#	4
16a	5
=18	=18
16g	1
16ee	5
16cc	4
16a	5
16f#	3
16cc	5
16a	4
16f#	5
16d#	2
16f#	5
16a	4
16cc	5
16b	3
16aa	5
16gg	4
16ff#	5
=19	=19
*-	*-
